!!!COM: Music21
!!!OTL: march_Sir-Watkins
!!!OMV: march_Sir-Watkins
**kern
*clefG2
*k[f#]
*G:
*M4/4
=1
8.ddL
16eeJk
=
4dd
8.ddL
16eeJk
8.ddL
16ccJk
8.bL
16aJk
=
8.gL
16gJk
8.gL
16gJk
4g
8.f#L
16gJk
=
4a
8.aL
16bJk
8.aL
16gJk
8.f#L
16eJk
=
8.dL
16dJk
8.dL
16dJk
4d
8.ddL
16ccJk
!!linebreak:original
=
8.bL
16ccJk
8.ddL
16ddJk
8.aL
16bJk
8.ccL
16ccJk
=
8.bL
16ccJk
8.ddL
16ddJk
8.aL
16bJk
8.ccL
16ccJk
=
8.bL
16gJk
12bL
12cc
12ddJ
8.aL
16f#Jk
12aL
12b
12ccJ
=
8.bL
16gJk
8.gL
16gJk
4g
4ryy
=||
*M4/4
8.ddL
16eeJk
!!linebreak:original
=
4dd
8.ddL
16eeJk
8.ddL
16ccJk
8.bL
16aJk
=
8.gL
16gJk
8.gL
16gJk
4g
8.f#L
16gJk
=
4a
8.aL
16bJk
8.aL
16gJk
8.f#L
16eJk
=
8.dL
16dJk
8.dL
16dJk
4d
8.ddL
16ccJk
=
8.bL
16ccJk
8.ddL
16ddJk
8.aL
16bJk
8.ccL
16ccJk
!!linebreak:original
=
8.bL
16ccJk
8.ddL
16ddJk
8.aL
16bJk
8.ccL
16ccJk
=
8.bL
16gJk
12bL
12cc
12ddJ
8.aL
16f#Jk
12aL
12b
12ccJ
=
8.bL
16gJk
8.gL
16gJk
4g
4ryy
=||
8.bL
16ccJk
2.ryy
=
4dd
8.ddL
16eeJk
8.ddL
16ggJk
8.ff#L
16eeJk
!!linebreak:original
=
8.ddL
16ddJk
8.ddL
16ddJk
4dd
8.bL
16ccJk
=
8.ddL
16ddJk
8.ggL
16ff#Jk
8.eeL
16ddJk
8.ccL
16bJk
=
8.aL
16aJk
8.aL
16aJk
4a
8.ddL
16ccJk
=
8.bL
16gJk
8.gL
16gJk
4g
8.ccL
16bJk
=
8.aL
16dJk
8.dL
16dJk
4d
8.ddL
16ccJk
!!linebreak:original
=
8.bL
16gJk
12bL
12cc
12ddJ
8.aL
16f#Jk
12aL
12b
12ccJ
=
8.bL
16gJk
8.gL
16gJk
4g
4ryy
=||
*M4/4
8.ddL
16eeJk
=
4dd
8.ddL
16eeJk
8.ddL
16ccJk
8.bL
16aJk
=
8.gL
16gJk
8.gL
16gJk
4g
8.f#L
16gJk
!!linebreak:original
=
4a
8.aL
16bJk
8.aL
16gJk
8.f#L
16eJk
=
8.dL
16dJk
8.dL
16dJk
4d
8.ddL
16ccJk
=
8.bL
16ccJk
8.ddL
16ddJk
8.aL
16bJk
8.ccL
16ccJk
=
8.bL
16ccJk
8.ddL
16ddJk
8.aL
16bJk
8.ccL
16ccJk
!!linebreak:original
=
8.bL
16gJk
12bL
12cc
12ddJ
8.aL
16f#Jk
12aL
12b
12ccJ
=
8.bL
16gJk
8.gL
16gJk
4g
4ryy
=||
*M4/4
8.ddL
16eeJk
=
4dd
8.ddL
16eeJk
8.ddL
16ccJk
8.bL
16aJk
=
8.gL
16gJk
8.gL
16gJk
4g
8.f#L
16gJk
!!linebreak:original
=
4a
8.aL
16bJk
8.aL
16gJk
8.f#L
16eJk
=
8.dL
16dJk
8.dL
16dJk
4d
8.ddL
16ccJk
=
8.bL
16ccJk
8.ddL
16ddJk
8.aL
16bJk
8.ccL
16ccJk
=
8.bL
16ccJk
8.ddL
16ddJk
8.aL
16bJk
8.ccL
16ccJk
!!linebreak:original
=
8.bL
16gJk
12bL
12cc
12ddJ
8.aL
16f#Jk
12aL
12b
12ccJ
=
8.bL
16gJk
8.gL
16gJk
4g
4ryy
=||
8.bL
16ccJk
2.ryy
=
4dd
8.ddL
16eeJk
8.ddL
16ggJk
8.ff#L
16eeJk
=
8.ddL
16ddJk
8.ddL
16ddJk
4dd
8.bL
16ccJk
!!pagebreak:original
=
8.ddL
16ddJk
8.ggL
16ff#Jk
8.eeL
16ddJk
8.ccL
16bJk
=
8.aL
16aJk
8.aL
16aJk
4a
8.ddL
16ccJk
=
8.bL
16gJk
8.gL
16gJk
4g
8.ccL
16bJk
=
8.aL
16dJk
8.dL
16dJk
4d
8.ddL
16ccJk
!!linebreak:original
=
8.bL
16gJk
12bL
12cc
12ddJ
8.aL
16f#Jk
12aL
12b
12ccJ
=
8.bL
16gJk
8.gL
16gJk
4g
4ryy
=||
*-
